public/buidlbox-logo-positive.svg

<svg width="844" height="214" viewBox="0 0 844 214" fill="none" xmlns="http://www.w3.org/2000/svg">
<path d="M290.312 154V60.9091H315.403V96.3636H315.767C316.676 94 318.009 91.8333 319.767 89.8636C321.525 87.8636 323.706 86.2727 326.312 85.0909C328.919 83.8788 331.949 83.2727 335.403 83.2727C340.009 83.2727 344.388 84.5 348.54 86.9545C352.722 89.4091 356.116 93.2727 358.722 98.5455C361.358 103.818 362.676 110.667 362.676 119.091C362.676 127.152 361.419 133.833 358.903 139.136C356.419 144.439 353.085 148.394 348.903 151C344.752 153.606 340.191 154.909 335.222 154.909C331.949 154.909 329.025 154.379 326.449 153.318C323.903 152.227 321.722 150.758 319.903 148.909C318.116 147.03 316.737 144.909 315.767 142.545H315.222V154H290.312ZM314.858 119.091C314.858 122.485 315.297 125.424 316.176 127.909C317.085 130.364 318.358 132.273 319.994 133.636C321.661 134.97 323.646 135.636 325.949 135.636C328.252 135.636 330.206 134.985 331.812 133.682C333.449 132.348 334.691 130.455 335.54 128C336.419 125.515 336.858 122.545 336.858 119.091C336.858 115.636 336.419 112.682 335.54 110.227C334.691 107.742 333.449 105.848 331.812 104.545C330.206 103.212 328.252 102.545 325.949 102.545C323.646 102.545 321.661 103.212 319.994 104.545C318.358 105.848 317.085 107.742 316.176 110.227C315.297 112.682 314.858 115.636 314.858 119.091Z" fill="#213645"/>
<path d="M418.449 123.455V84.1818H443.54V154H419.722V140.727H418.994C417.479 145.182 414.828 148.667 411.04 151.182C407.252 153.667 402.752 154.909 397.54 154.909C392.661 154.909 388.388 153.788 384.722 151.545C381.085 149.303 378.252 146.212 376.222 142.273C374.222 138.333 373.206 133.818 373.176 128.727V84.1818H398.267V123.455C398.297 126.909 399.176 129.621 400.903 131.591C402.661 133.561 405.116 134.545 408.267 134.545C410.358 134.545 412.161 134.106 413.676 133.227C415.222 132.318 416.403 131.045 417.222 129.409C418.07 127.742 418.479 125.758 418.449 123.455Z" fill="#213645"/>
<path d="M456.301 154V84.1818H481.392V154H456.301ZM468.847 76.9091C465.453 76.9091 462.544 75.7879 460.119 73.5455C457.695 71.303 456.483 68.6061 456.483 65.4545C456.483 62.303 457.695 59.6061 460.119 57.3636C462.544 55.1212 465.453 54 468.847 54C472.271 54 475.18 55.1212 477.574 57.3636C479.998 59.6061 481.21 62.303 481.21 65.4545C481.21 68.6061 479.998 71.303 477.574 73.5455C475.18 75.7879 472.271 76.9091 468.847 76.9091Z" fill="#213645"/>
<path d="M519.449 154.909C514.479 154.909 509.903 153.606 505.722 151C501.57 148.394 498.237 144.439 495.722 139.136C493.237 133.833 491.994 127.152 491.994 119.091C491.994 110.667 493.297 103.818 495.903 98.5455C498.54 93.2727 501.934 89.4091 506.085 86.9545C510.267 84.5 514.661 83.2727 519.267 83.2727C522.722 83.2727 525.752 83.8788 528.358 85.0909C530.964 86.2727 533.146 87.8636 534.903 89.8636C536.661 91.8333 537.994 94 538.903 96.3636H539.267V60.9091H564.358V154H539.449V142.545H538.903C537.934 144.909 536.54 147.03 534.722 148.909C532.934 150.758 530.752 152.227 528.176 153.318C525.631 154.379 522.722 154.909 519.449 154.909ZM528.722 135.636C531.025 135.636 532.994 134.97 534.631 133.636C536.297 132.273 537.57 130.364 538.449 127.909C539.358 125.424 539.812 122.485 539.812 119.091C539.812 115.636 539.358 112.682 538.449 110.227C537.57 107.742 536.297 105.848 534.631 104.545C532.994 103.212 531.025 102.545 528.722 102.545C526.419 102.545 524.449 103.212 522.812 104.545C521.206 105.848 519.964 107.742 519.085 110.227C518.237 112.682 517.812 115.636 517.812 119.091C517.812 122.545 518.237 125.515 519.085 128C519.964 130.455 521.206 132.348 522.812 133.682C524.449 134.985 526.419 135.636 528.722 135.636Z" fill="#213645"/>
<path d="M601.767 60.9091V154H576.676V60.9091H601.767Z" fill="#213645"/>
<path d="M614.188 154V60.9091H639.278V96.3636H639.642C640.551 94 641.884 91.8333 643.642 89.8636C645.4 87.8636 647.581 86.2727 650.188 85.0909C652.794 83.8788 655.824 83.2727 659.278 83.2727C663.884 83.2727 668.263 84.5 672.415 86.9545C676.597 89.4091 679.991 93.2727 682.597 98.5455C685.233 103.818 686.551 110.667 686.551 119.091C686.551 127.152 685.294 133.833 682.778 139.136C680.294 144.439 676.96 148.394 672.778 151C668.627 153.606 664.066 154.909 659.097 154.909C655.824 154.909 652.9 154.379 650.324 153.318C647.778 152.227 645.597 150.758 643.778 148.909C641.991 147.03 640.612 144.909 639.642 142.545H639.097V154H614.188ZM638.733 119.091C638.733 122.485 639.172 125.424 640.051 127.909C640.96 130.364 642.233 132.273 643.869 133.636C645.536 134.97 647.521 135.636 649.824 135.636C652.127 135.636 654.081 134.985 655.688 133.682C657.324 132.348 658.566 130.455 659.415 128C660.294 125.515 660.733 122.545 660.733 119.091C660.733 115.636 660.294 112.682 659.415 110.227C658.566 107.742 657.324 105.848 655.688 104.545C654.081 103.212 652.127 102.545 649.824 102.545C647.521 102.545 645.536 103.212 643.869 104.545C642.233 105.848 640.96 107.742 640.051 110.227C639.172 112.682 638.733 115.636 638.733 119.091Z" fill="#213645"/>
<path d="M730.688 155.273C723.112 155.273 716.627 153.773 711.233 150.773C705.839 147.742 701.703 143.53 698.824 138.136C695.945 132.712 694.506 126.424 694.506 119.273C694.506 112.121 695.945 105.848 698.824 100.455C701.703 95.0303 705.839 90.8182 711.233 87.8182C716.627 84.7879 723.112 83.2727 730.688 83.2727C738.263 83.2727 744.748 84.7879 750.142 87.8182C755.536 90.8182 759.672 95.0303 762.551 100.455C765.43 105.848 766.869 112.121 766.869 119.273C766.869 126.424 765.43 132.712 762.551 138.136C759.672 143.53 755.536 147.742 750.142 150.773C744.748 153.773 738.263 155.273 730.688 155.273ZM730.869 136.727C732.991 136.727 734.824 136.015 736.369 134.591C737.915 133.167 739.112 131.136 739.96 128.5C740.809 125.864 741.233 122.727 741.233 119.091C741.233 115.424 740.809 112.288 739.96 109.682C739.112 107.045 737.915 105.015 736.369 103.591C734.824 102.167 732.991 101.455 730.869 101.455C728.627 101.455 726.703 102.167 725.097 103.591C723.491 105.015 722.263 107.045 721.415 109.682C720.566 112.288 720.142 115.424 720.142 119.091C720.142 122.727 720.566 125.864 721.415 128.5C722.263 131.136 723.491 133.167 725.097 134.591C726.703 136.015 728.627 136.727 730.869 136.727Z" fill="#213645"/>
<path d="M796.312 84.1818L806.494 105.818L817.222 84.1818H842.131L823.403 119.091L843.04 154H818.312L806.494 131.818L795.04 154H769.949L789.767 119.091L771.222 84.1818H796.312Z" fill="#213645"/>
<path d="M60.845 7H206.312V152.467H98.2203C77.5928 152.467 60.845 135.719 60.845 115.092V7Z" fill="#E54DE5"/>
<path d="M7 61.5327H112.209C134.429 61.5327 152.459 79.5712 152.459 101.783V206.992H7V61.5327Z" fill="#16DBBE"/>
<path fill-rule="evenodd" clip-rule="evenodd" d="M152.191 152.467H97.9518C77.3242 152.467 60.5764 135.719 60.5764 115.092V61.5327H111.941C134.16 61.5327 152.191 79.5712 152.191 101.783V152.467Z" fill="#FFC800"/>
<path fill-rule="evenodd" clip-rule="evenodd" d="M0.5 61.5327C0.5 57.9429 3.41015 55.0327 7 55.0327H112.209C138.019 55.0327 158.959 75.9822 158.959 101.783V206.992C158.959 210.582 156.049 213.492 152.459 213.492H7C3.41015 213.492 0.5 210.582 0.5 206.992V61.5327ZM13.5 68.0327V200.492H145.959V101.783C145.959 83.1602 130.838 68.0327 112.209 68.0327H13.5Z" fill="#213645"/>
<path fill-rule="evenodd" clip-rule="evenodd" d="M54.345 7C54.345 3.41015 57.2551 0.5 60.845 0.5H206.312C209.902 0.5 212.812 3.41015 212.812 7V152.467C212.812 156.057 209.902 158.967 206.312 158.967H98.2203C74.0029 158.967 54.345 139.309 54.345 115.092V7ZM67.345 13.5V115.092C67.345 132.13 81.1826 145.967 98.2203 145.967H199.812V13.5H67.345Z" fill="#213645"/>
<path fill-rule="evenodd" clip-rule="evenodd" d="M210.879 147.842C213.434 150.364 213.46 154.48 210.937 157.034L157.092 211.567C154.57 214.121 150.455 214.148 147.9 211.625C145.346 209.103 145.32 204.988 147.842 202.433L201.687 147.9C204.209 145.346 208.325 145.32 210.879 147.842Z" fill="#213645"/>
<path fill-rule="evenodd" clip-rule="evenodd" d="M65.4119 2.37473C67.9664 4.89698 67.9925 9.01246 65.4702 11.5669L11.6253 66.0997C9.10303 68.6542 4.98754 68.6803 2.43307 66.1581C-0.121398 63.6358 -0.147517 59.5203 2.37473 56.9659L56.2197 2.43307C58.7419 -0.121398 62.8574 -0.147517 65.4119 2.37473Z" fill="#213645"/>
</svg>

<svg xmlns="http://www.w3.org/2000/svg" width="844" height="214" fill="none"><path fill="#213645" d="M290.312 154V60.91h25.091v35.454h.364c.909-2.364 2.242-4.53 4-6.5 1.758-2 3.939-3.591 6.545-4.773 2.607-1.212 5.637-1.818 9.091-1.818 4.606 0 8.985 1.227 13.137 3.681 4.182 2.455 7.576 6.319 10.182 11.592 2.636 5.272 3.954 12.121 3.954 20.545 0 8.061-1.257 14.742-3.773 20.045-2.484 5.303-5.818 9.258-10 11.864-4.151 2.606-8.712 3.909-13.681 3.909-3.273 0-6.197-.53-8.773-1.591-2.546-1.091-4.727-2.56-6.546-4.409a20.405 20.405 0 0 1-4.136-6.364h-.545V154h-24.91Zm24.546-34.909c0 3.394.439 6.333 1.318 8.818.909 2.455 2.182 4.364 3.818 5.727 1.667 1.334 3.652 2 5.955 2s4.257-.651 5.863-1.954c1.637-1.334 2.879-3.227 3.728-5.682.879-2.485 1.318-5.455 1.318-8.909 0-3.455-.439-6.409-1.318-8.864-.849-2.485-2.091-4.379-3.728-5.682-1.606-1.333-3.56-2-5.863-2-2.303 0-4.288.667-5.955 2-1.636 1.303-2.909 3.197-3.818 5.682-.879 2.455-1.318 5.409-1.318 8.864ZM418.449 123.455V84.182h25.091V154h-23.818v-13.273h-.728c-1.515 4.455-4.166 7.94-7.954 10.455-3.788 2.485-8.288 3.727-13.5 3.727-4.879 0-9.152-1.121-12.818-3.364-3.637-2.242-6.47-5.333-8.5-9.272-2-3.94-3.016-8.455-3.046-13.546V84.182h25.091v39.273c.03 3.454.909 6.166 2.636 8.136 1.758 1.97 4.213 2.954 7.364 2.954 2.091 0 3.894-.439 5.409-1.318 1.546-.909 2.727-2.182 3.546-3.818.848-1.667 1.257-3.651 1.227-5.954ZM456.301 154V84.182h25.091V154h-25.091Zm12.546-77.09c-3.394 0-6.303-1.122-8.728-3.364-2.424-2.243-3.636-4.94-3.636-8.092 0-3.151 1.212-5.848 3.636-8.09 2.425-2.243 5.334-3.364 8.728-3.364 3.424 0 6.333 1.121 8.727 3.364 2.424 2.242 3.636 4.939 3.636 8.09 0 3.152-1.212 5.849-3.636 8.092-2.394 2.242-5.303 3.363-8.727 3.363ZM519.449 154.909c-4.97 0-9.546-1.303-13.727-3.909-4.152-2.606-7.485-6.561-10-11.864-2.485-5.303-3.728-11.984-3.728-20.045 0-8.424 1.303-15.273 3.909-20.545 2.637-5.273 6.031-9.137 10.182-11.592 4.182-2.454 8.576-3.681 13.182-3.681 3.455 0 6.485.606 9.091 1.818 2.606 1.182 4.788 2.773 6.545 4.773 1.758 1.97 3.091 4.136 4 6.5h.364V60.909h25.091V154h-24.909v-11.455h-.546a19.987 19.987 0 0 1-4.181 6.364c-1.788 1.849-3.97 3.318-6.546 4.409-2.545 1.061-5.454 1.591-8.727 1.591Zm9.273-19.273c2.303 0 4.272-.666 5.909-2 1.666-1.363 2.939-3.272 3.818-5.727.909-2.485 1.363-5.424 1.363-8.818 0-3.455-.454-6.409-1.363-8.864-.879-2.485-2.152-4.379-3.818-5.682-1.637-1.333-3.606-2-5.909-2s-4.273.667-5.91 2c-1.606 1.303-2.848 3.197-3.727 5.682-.848 2.455-1.273 5.409-1.273 8.864 0 3.454.425 6.424 1.273 8.909.879 2.455 2.121 4.348 3.727 5.682 1.637 1.303 3.607 1.954 5.91 1.954ZM601.767 60.91V154h-25.091V60.91h25.091ZM614.188 154V60.91h25.09v35.454h.364c.909-2.364 2.242-4.53 4-6.5 1.758-2 3.939-3.591 6.546-4.773 2.606-1.212 5.636-1.818 9.09-1.818 4.606 0 8.985 1.227 13.137 3.681 4.182 2.455 7.576 6.319 10.182 11.592 2.636 5.272 3.954 12.121 3.954 20.545 0 8.061-1.257 14.742-3.773 20.045-2.484 5.303-5.818 9.258-10 11.864-4.151 2.606-8.712 3.909-13.681 3.909-3.273 0-6.197-.53-8.773-1.591-2.546-1.091-4.727-2.56-6.546-4.409a20.405 20.405 0 0 1-4.136-6.364h-.545V154h-24.909Zm24.545-34.909c0 3.394.439 6.333 1.318 8.818.909 2.455 2.182 4.364 3.818 5.727 1.667 1.334 3.652 2 5.955 2s4.257-.651 5.864-1.954c1.636-1.334 2.878-3.227 3.727-5.682.879-2.485 1.318-5.455 1.318-8.909 0-3.455-.439-6.409-1.318-8.864-.849-2.485-2.091-4.379-3.727-5.682-1.607-1.333-3.561-2-5.864-2s-4.288.667-5.955 2c-1.636 1.303-2.909 3.197-3.818 5.682-.879 2.455-1.318 5.409-1.318 8.864ZM730.688 155.273c-7.576 0-14.061-1.5-19.455-4.5-5.394-3.031-9.53-7.243-12.409-12.637-2.879-5.424-4.318-11.712-4.318-18.863 0-7.152 1.439-13.425 4.318-18.818 2.879-5.425 7.015-9.637 12.409-12.637 5.394-3.03 11.879-4.545 19.455-4.545 7.575 0 14.06 1.515 19.454 4.545 5.394 3 9.53 7.212 12.409 12.637 2.879 5.393 4.318 11.666 4.318 18.818 0 7.151-1.439 13.439-4.318 18.863-2.879 5.394-7.015 9.606-12.409 12.637-5.394 3-11.879 4.5-19.454 4.5Zm.181-18.546c2.122 0 3.955-.712 5.5-2.136 1.546-1.424 2.743-3.455 3.591-6.091.849-2.636 1.273-5.773 1.273-9.409 0-3.667-.424-6.803-1.273-9.409-.848-2.637-2.045-4.667-3.591-6.091-1.545-1.424-3.378-2.136-5.5-2.136-2.242 0-4.166.712-5.772 2.136-1.606 1.424-2.834 3.454-3.682 6.091-.849 2.606-1.273 5.742-1.273 9.409 0 3.636.424 6.773 1.273 9.409.848 2.636 2.076 4.667 3.682 6.091 1.606 1.424 3.53 2.136 5.772 2.136ZM796.312 84.182l10.182 21.636 10.728-21.636h24.909l-18.728 34.909L843.04 154h-24.728l-11.818-22.182L795.04 154h-25.091l19.818-34.909-18.545-34.91h25.09Z"/><path fill="#E54DE5" d="M60.845 7h145.467v145.467H98.22c-20.627 0-37.375-16.748-37.375-37.375V7Z"/><path fill="#16DBBE" d="M7 61.533h105.209c22.22 0 40.25 18.038 40.25 40.25v105.209H7V61.532Z"/><path fill="#FFC800" fill-rule="evenodd" d="M152.191 152.467h-54.24c-20.627 0-37.375-16.748-37.375-37.375v-53.56h51.365c22.219 0 40.25 18.04 40.25 40.251v50.684Z" clip-rule="evenodd"/><path fill="#213645" fill-rule="evenodd" d="M.5 61.533a6.5 6.5 0 0 1 6.5-6.5h105.209c25.81 0 46.75 20.95 46.75 46.75v105.209a6.5 6.5 0 0 1-6.5 6.5H7a6.5 6.5 0 0 1-6.5-6.5V61.532Zm13 6.5v132.459h132.459v-98.709c0-18.623-15.121-33.75-33.75-33.75H13.5Z" clip-rule="evenodd"/><path fill="#213645" fill-rule="evenodd" d="M54.345 7a6.5 6.5 0 0 1 6.5-6.5h145.467a6.5 6.5 0 0 1 6.5 6.5v145.467a6.5 6.5 0 0 1-6.5 6.5H98.22c-24.217 0-43.875-19.658-43.875-43.875V7Zm13 6.5v101.592c0 17.038 13.838 30.875 30.875 30.875h101.592V13.5H67.345Z" clip-rule="evenodd"/><path fill="#213645" fill-rule="evenodd" d="M210.879 147.842a6.499 6.499 0 0 1 .058 9.192l-53.845 54.533a6.5 6.5 0 1 1-9.25-9.134l53.845-54.533a6.5 6.5 0 0 1 9.192-.058ZM65.412 2.375a6.5 6.5 0 0 1 .058 9.192L11.625 66.1a6.5 6.5 0 0 1-9.25-9.134L56.22 2.433a6.5 6.5 0 0 1 9.192-.058Z" clip-rule="evenodd"/></svg>
